X:1
T:Title
%%score { ( 1 3 ) | ( 2 4 ) }
L:1/8
Q:1/4=100
M:4/4
K:Db
V:1 treble nm="Grand Piano"
V:3 treble 
V:2 bass 
V:4 bass 
V:1
 [Fd]2 [_Fc]>[FB] [A,=FA]2 [A,DF]2 | [G,CE]>[F,C=D] [G,CE]>[A,CF] [F,_D]4 | %2
w: J.~Lincoln~Hall * * * *||
 [CE]2 [CE]>[DF] [EG]2 [FA]2 | [_FB]4 [=FA]4 | [Fd]2 [Fc]>[FB] [Ee]2 [EA]2 | %5
w: |||
 [Fd]2 [Fc]>[FB] [Ee]2 [Fd]2 | [Ec]4 [DB]4 | [A,CA]6 A>A | A2 A2 c2 A2 | [_FB]4 [A,=FA]2 A>A | %10
w: |||||
 A2 A2 c2 d2 | e4 A2 A2 | a2 A2 z2 A2 | a2 A2 z2 A2 | a8- |[M:3/4] a6 | F2 G2 f2 | e2 B4 | %18
w: ||||||||
 c2 [Fe]2 [Fd]2 | [_FB]2 [=FA]4 | [DF]2 [CF]2 [CA]2 | [CG]2 [CE]4 | [EG]2 [_FB]4- | %23
w: |||||
[M:2/4] [FB]2 [=FA]2- |[M:1/4] [FA]2 | F2 |[M:3/4] G2 f2 e2 | B4 c2 | [Fe]2 [Fd]2 F2 | %29
w: ||||||
 [_Fc]4 [FB]2 | [FA]2 [A,C]2 [A,D]2 | [A,CF]4[K:bass] [G,CE]2 | D2- [A,D-]2 [=A,D-]2 | [A,D]6 |] %34
w: |||||
V:2
 [D,A,]2 [D,=G,]>[D,G,] D,2 D,2 | A,,>A,, A,,>A,, D,4 | %2
 [A,,A,]2 [A,,A,]>[A,,A,] [A,,A,]2 [A,,A,]2 | [D,=G,]4 [D,A,]4 | %4
 [D,A,]2 [D,A,]>[D,A,] [C,A,]2 [C,A,]2 | [D,A,]2 [D,A,]>[D,A,] [C,A,]2 [D,A,]2 | [E,A,]4 [E,=G,]4 | %7
 A,,6 A,>A, | [A,CG]2 [A,CG]2 [A,EG]2 [A,CG]2 | [D,=G,]4 D,2 A,>A, | %10
 [A,CG]2 [A,CG]2 [A,EG]2 [A,DF]2 | [A,CG]4 [A,CG]2 [A,CEG]2 | [A,CEG]2 [A,CEG]2 z2 [A,CEG]2 | %13
 [A,_CDF]2 [A,CDF]2 z2 [A,CDF]2 | [A,CEG]4[K:bass] [A,_CD]4 |[M:3/4] [A,CE]6 | %16
 [D,A,D]2[K:treble] [A,CE]2 [A,CG]2 | [A,CG]2 [A,EG]4 | [A,EG]2[K:bass] [D,D]2 [D,A,]2 | %19
 [D,=G,]2 [D,A,]4 | [D,A,]2 [A,,A,]2 [A,,A,]2 | [A,,A,]2 [A,,A,]4 | [A,,A,]2 [D,=G,]4- | %23
[M:2/4] [D,G,]2 [D,A,]2- |[M:1/4] [D,A,]2 | [D,A,D]2 |[M:3/4][K:treble] [A,CE]2 [A,CG]2 [A,CG]2 | %27
 [A,EG]4 [A,EG]2 | [D,D]2 [D,D]2 [D,A,]2 | [D,=G,]4 [D,G,]2 | A,2 G,2 F,2 | A,,4 A,,2 | %32
 z2 F,2 G,2 | F,6 |] %34
V:3
 x8 | x8 | x8 | x8 | x8 | x8 | x8 | x8 | x8 | x8 | x8 | x8 | x8 | x8 | z4 F4 |[M:3/4] G6 | x6 | %17
 x6 | x6 | x6 | x6 | x6 | x6 |[M:2/4] x4 |[M:1/4] x2 | x2 |[M:3/4] x6 | x6 | x6 | x6 | x6 | %31
 x4[K:bass] x2 | F,2 z2 z2 | x6 |] %34
V:4
 x8 | x8 | x8 | x8 | x8 | x8 | x8 | x8 | x8 | x8 | x8 | x8 | x8 | x8 | x4[K:bass] x4 |[M:3/4] x6 | %16
 x2[K:treble] x4 | x6 | x2[K:bass] x4 | x6 | x6 | x6 | x6 |[M:2/4] x4 |[M:1/4] x2 | x2 | %26
[M:3/4][K:treble] x6 | x6 | x6 | x6 | x6 | x6 | D,6- | D,6 |] %34

